!!!!SEGMENT: pl-sa--l-1643--047_anonim--salve-anna-sanctissima.krn
!!!cenid: 16xx:1409
!!!COM: Anonim
!!!COM-rismID: pe30004985
!!!CDT:
!!!CNT:
!!!OTL: Salve Anna Sanctissima
!!!PDT:
!!!AGN: Sacred
!!!SMS-siglum: PL-SA
!!!SMS-shelfmark: L 1643
!!!SMS-shelfwork: 047 W
!!!SMS-variant:
!!!SMS-altvar:
!!!NIFC-rismSourceID: 1001064678
!!!NIFC-rismChildID: 1001064678
!!!NIFC-islandoraID:
!!!URL-pdf-islandora:
!!!URL-scan:
!!!ONB-nifc: UWAGA: 8 ksiąg. Primi chori: 1mus Cantus (83), C 2dus (83), C 3tius (80), Bassus (78); Secondi chori: Primus Cantus (77), C 2dus (80), Altus (78), Bassus (79). UWAGA: Nie dodawać pustych linii, chyba że w rękopisie pojawiają się dodatkowe oznaczenia dotyczące pełnej obsady (a 4, a 8 itp.)
!!!AIN: 8 empty
!!!key:
**kern	**text	**kern	**text	**kern	**text	**kern	**text	**kern	**text	**kern	**text	**kern	**text	**kern	**text
*part8	*part8	*part7	*part7	*part6	*part6	*part5	*part5	*part4	*part4	*part3	*part3	*part2	*part2	*part1	*part1
*staff8	*staff8	*staff7	*staff7	*staff6	*staff6	*staff5	*staff5	*staff4	*staff4	*staff3	*staff3	*staff2	*staff2	*staff1	*staff1
*Iempty	*	*Iempty	*	*Iempty	*	*Iempty	*	*Iempty	*	*Iempty	*	*Iempty	*	*Iempty	*
*I"Secondi chori: Bassus	*	*I"Secondi chori: Altus	*	*I"Secondi chori: C 2dus	*	*I"Secondi chori: Primus Cantus	*	*I"Primi chori: Bassus	*	*I"Primi chori: C 3tius	*	*I"Primi chori: C 2dus	*	*I"Primi chori: 1mus Cantus	*
*I'Coro 2 B	*	*I'Coro 2 A	*	*I'Coro 2 C 2	*	*I'Coro 2 C 1	*	*I'Coro 1 B	*	*I'Coro 1 C 3	*	*I'Coro 1 C 2	*	*I'Coro 1 C 1	*
*clefC3	*	*clefC1	*	*clefC1	*	*clefC1	*	*clefC3	*	*clefC1	*	*clefC1	*	*clefC1	*
*k[]	*	*k[]	*	*k[]	*	*k[]	*	*k[]	*	*k[]	*	*k[]	*	*k[]	*
*G:	*	*G:	*	*G:	*	*G:	*	*G:	*	*G:	*	*G:	*	*G:	*
*M2/2	*	*M2/2	*	*M2/2	*	*M2/2	*	*M2/2	*	*M2/2	*	*M2/2	*	*M2/2	*
*met(C|)	*	*met(C|)	*	*met(C|)	*	*met(C|)	*	*met(C|)	*	*met(C|)	*	*met(C|)	*	*met(C|)	*
=1-	=1-	=1-	=1-	=1-	=1-	=1-	=1-	=1-	=1-	=1-	=1-	=1-	=1-	=1-	=1-
!!LO:TX:t=P:problem:oddech jako rozdzielacz słów:global
!	!	!	!	!	!	!	!	!	!	!	!	!	!	!LO:TX:t=P:problem=litera S.color=red	!
00r	.	00r	.	00r	.	00r	.	00r	.	00r	.	00r	.	1dd	Sal-
=2-	=2-	=2-	=2-	=2-	=2-	=2-	=2-	=2-	=2-	=2-	=2-	=2-	=2-	=2-	=2-
.	.	.	.	.	.	.	.	.	.	.	.	.	.	1cc	-ve
=3-	=3-	=3-	=3-	=3-	=3-	=3-	=3-	=3-	=3-	=3-	=3-	=3-	=3-	=3-	=3-
*	*	*	*	*	*	*	*	*	*	*	*	*	*	*	*color:red
.	.	.	.	.	.	.	.	.	.	.	.	.	.	1b	An-
=4-	=4-	=4-	=4-	=4-	=4-	=4-	=4-	=4-	=4-	=4-	=4-	=4-	=4-	=4-	=4-
.	.	.	.	.	.	.	.	.	.	.	.	.	.	2b\	-na
*	*	*	*	*	*	*	*	*	*	*	*	*	*	*	*color:auto
.	.	.	.	.	.	.	.	.	.	.	.	.	.	2g/	San-
=5-	=5-	=5-	=5-	=5-	=5-	=5-	=5-	=5-	=5-	=5-	=5-	=5-	=5-	=5-	=5-
0r	.	0r	.	0r	.	0r	.	00r	.	00r	.	00r	.	2.a\	-ctiſ-
.	.	.	.	.	.	.	.	.	.	.	.	.	.	4a\	-si-
=6-	=6-	=6-	=6-	=6-	=6-	=6-	=6-	=6-	=6-	=6-	=6-	=6-	=6-	=6-	=6-
.	.	.	.	.	.	.	.	.	.	.	.	.	.	1g	-ma
=7-	=7-	=7-	=7-	=7-	=7-	=7-	=7-	=7-	=7-	=7-	=7-	=7-	=7-	=7-	=7-
!LO:TX:t=P:problem=litera S.color=red	!	!LO:TX:t=P:problem=litera S.color=red	!	!LO:TX:t=P:problem=litera S.color=red	!	!LO:TX:t=P:problem=litera S.color=red	!	!	!	!	!	!	!	!	!
1G	Sal-	2.g/	Sal-	1b	Sal	1dd	Sal-	.	.	.	.	.	.	00r	.
.	.	4f/	.	.	.	.	.	.	.	.	.	.	.	.	.
=8-	=8-	=8-	=8-	=8-	=8-	=8-	=8-	=8-	=8-	=8-	=8-	=8-	=8-	=8-	=8-
!	!	!	!	!LO:TX:t=P:problem=nieczytelne źródło	!	!	!	!	!	!	!	!	!	!	!
1c	-ve	1e	-ve	1ryy	.	1cc	-ve	.	.	.	.	.	.	.	.
=9-	=9-	=9-	=9-	=9-	=9-	=9-	=9-	=9-	=9-	=9-	=9-	=9-	=9-	=9-	=9-
*	*color:red	*	*color:red	*	*color:red	*	*color:red	*	*	*	*	*	*	*	*
1G	An-	1d	An-	4dd\	An-	1b	An-	0r	.	0r	.	0r	.	.	.
.	.	.	.	4cc\	.	.	.	.	.	.	.	.	.	.	.
.	.	.	.	4b\	.	.	.	.	.	.	.	.	.	.	.
.	.	.	.	4a\	.	.	.	.	.	.	.	.	.	.	.
=10-	=10-	=10-	=10-	=10-	=10-	=10-	=10-	=10-	=10-	=10-	=10-	=10-	=10-	=10-	=10-
2G/	-na	2d/	-na	2g/	-na	2b\	-na	.	.	.	.	.	.	.	.
*	*color:auto	*	*color:auto	*	*color:auto	*	*color:auto	*	*	*	*	*	*	*	*
2B/	ſan-	2g/	ſan-	2g/	ſan-	2g/	San-	.	.	.	.	.	.	.	.
=11-	=11-	=11-	=11-	=11-	=11-	=11-	=11-	=11-	=11-	=11-	=11-	=11-	=11-	=11-	=11-
!	!	!	!	!	!	!	!	!LO:TX:t=P:problem=kreska pseudotaktowa	!	!	!	!	!	!	!
2.d\	-ctiſ-	2g/	-ctiſ-	2.dd\	-ctiſ-	2.a\	-ctiſ-	1r	.	1r	.	1r	.	00r	.
.	.	2f/	-si-	.	.	.	.	.	.	.	.	.	.	.	.
4d\	-si-	.	.	4dd\	-si-	4a\	-si-	.	.	.	.	.	.	.	.
=12-	=12-	=12-	=12-	=12-	=12-	=12-	=12-	=12-	=12-	=12-	=12-	=12-	=12-	=12-	=12-
1G	-ma	1g	-ma	1dd	-ma.	1g	-ma	2r	.	2r	.	2r	.	.	.
*	*	*	*	*	*	*	*	*	*color:red	*	*color:red	*	*color:red	*	*
!	!	!	!	!	!	!	!	!	!	!LO:TX:b:t=Echo:color=red	!	!	!	!	!
!	!	!	!	!	!	!	!	!LO:TX:a:t=Na Echo.:color=red	!	!	!	!	!	!	!
.	.	.	.	.	.	.	.	2G/	An-	2g/	An-	2b\	An-	.	.
=13-	=13-	=13-	=13-	=13-	=13-	=13-	=13-	=13-	=13-	=13-	=13-	=13-	=13-	=13-	=13-
00r	.	00r	.	00r	.	00r	.	2G/	-na	2d/	-na	2b\	-na	.	.
*	*	*	*	*	*	*	*	*	*color:auto	*	*color:auto	*	*color:auto	*	*
.	.	.	.	.	.	.	.	2B/	San-	2g/	San-	2g/	San-	.	.
=14-	=14-	=14-	=14-	=14-	=14-	=14-	=14-	=14-	=14-	=14-	=14-	=14-	=14-	=14-	=14-
.	.	.	.	.	.	.	.	2.d\	-ctiſ-	2.f#X/	-ctiſ-	2.a\	-ctiſ-	.	.
.	.	.	.	.	.	.	.	4d\	-si-	4f#/	-si-	4a\	-si-	.	.
=15-	=15-	=15-	=15-	=15-	=15-	=15-	=15-	=15-	=15-	=15-	=15-	=15-	=15-	=15-	=15-
!	!	!	!	!	!	!	!	!LO:TX:t=P:problem=kreska pseudotaktowa	!	!LO:TX:t=P:problem=kreska pseudotaktowa	!	!LO:TX:t=P:problem=kreska pseudotaktowa	!	!LO:TX:t=P:problem=kreska pseudotaktowa	!
.	.	.	.	.	.	.	.	1G	-ma	1g	-ma	1b;	-ma	1r	.
=16-	=16-	=16-	=16-	=16-	=16-	=16-	=16-	=16-	=16-	=16-	=16-	=16-	=16-	=16-	=16-
.	.	.	.	.	.	.	.	1.g	ſal-	00r	.	00r	.	4b\	Sal-
.	.	.	.	.	.	.	.	.	.	.	.	.	.	4a\	.
.	.	.	.	.	.	.	.	.	.	.	.	.	.	4b\	.
.	.	.	.	.	.	.	.	.	.	.	.	.	.	4cc\	.
=17-	=17-	=17-	=17-	=17-	=17-	=17-	=17-	=17-	=17-	=17-	=17-	=17-	=17-	=17-	=17-
00r	.	00r	.	00r	.	00r	.	.	.	.	.	.	.	2dd\	.
.	.	.	.	.	.	.	.	2e\	-ve	.	.	.	.	2ee\	-ve
=18-	=18-	=18-	=18-	=18-	=18-	=18-	=18-	=18-	=18-	=18-	=18-	=18-	=18-	=18-	=18-
*	*	*	*	*	*	*	*	*	*	*	*	*	*	*	*color:red
.	.	.	.	.	.	.	.	4d\	An-	.	.	.	.	1ff	An-
.	.	.	.	.	.	.	.	4e\	.	.	.	.	.	.	.
.	.	.	.	.	.	.	.	4f\	.	.	.	.	.	.	.
.	.	.	.	.	.	.	.	4g\	.	.	.	.	.	.	.
=19-	=19-	=19-	=19-	=19-	=19-	=19-	=19-	=19-	=19-	=19-	=19-	=19-	=19-	=19-	=19-
*	*	*	*	*	*	*	*	*	*	*	*	*	*	*custos:cc	*
.	.	.	.	.	.	.	.	2a\	-na	.	.	.	.	2ee\	-na
*	*	*	*	*	*	*	*	*	*	*	*	*	*	*	*color:auto
*	*	*	*	*	*	*	*	*custos:g	*	*	*	*	*	*	*
!	!	!	!	!	!	!	!	!	!	!	!	!	!	!LO:LB:g=original	!
.	.	.	.	.	.	.	.	2a\	ſan-	.	.	.	.	2cc\	San-
=20-	=20-	=20-	=20-	=20-	=20-	=20-	=20-	=20-	=20-	=20-	=20-	=20-	=20-	=20-	=20-
!	!	!	!	!	!	!	!	!LO:LB:g=original	!	!	!	!	!	!	!
.	.	.	.	.	.	.	.	2.g\	-ctiſ-	00r	.	00r	.	2.dd\	-ctiſ-
.	.	.	.	.	.	.	.	4g\	-si-	.	.	.	.	4dd\	-si-
=21-	=21-	=21-	=21-	=21-	=21-	=21-	=21-	=21-	=21-	=21-	=21-	=21-	=21-	=21-	=21-
1r	.	0r	.	1r	.	1r	.	1c	-ma	.	.	.	.	1ee	-ma
=22-	=22-	=22-	=22-	=22-	=22-	=22-	=22-	=22-	=22-	=22-	=22-	=22-	=22-	=22-	=22-
1.g	ſal-	.	.	4dd\	ſal-	4b\	Sal-	00r	.	.	.	.	.	00r	.
.	.	.	.	4cc\	.	4a\	.	.	.	.	.	.	.	.	.
.	.	.	.	4b\	.	4b\	.	.	.	.	.	.	.	.	.
.	.	.	.	4a\	.	4cc\	.	.	.	.	.	.	.	.	.
=23-	=23-	=23-	=23-	=23-	=23-	=23-	=23-	=23-	=23-	=23-	=23-	=23-	=23-	=23-	=23-
.	.	2r	.	2b\	.	2dd\	.	.	.	.	.	.	.	.	.
2e\	-ve	2g/	ſal-	2g/	-ve	2ee\	-ve	.	.	.	.	.	.	.	.
=24-	=24-	=24-	=24-	=24-	=24-	=24-	=24-	=24-	=24-	=24-	=24-	=24-	=24-	=24-	=24-
1d	An-	2f/	-ve	4a\	An-	1ff	An-	.	.	0r	.	0r	.	.	.
.	.	.	.	4g/	.	.	.	.	.	.	.	.	.	.	.
.	.	2d/	An-	4a\	.	.	.	.	.	.	.	.	.	.	.
.	.	.	.	4b\	.	.	.	.	.	.	.	.	.	.	.
=25-	=25-	=25-	=25-	=25-	=25-	=25-	=25-	=25-	=25-	=25-	=25-	=25-	=25-	=25-	=25-
2c/	-na	2e/	-na	2cc\	-na	2ee\	-na	.	.	.	.	.	.	.	.
*	*	*	*	*custos:b	*	*	*	*	*	*	*	*	*	*	*
2A/	ſan-	2e/	san-	2cc\	ſan-	2cc\	ſan-	.	.	.	.	.	.	.	.
=26-	=26-	=26-	=26-	=26-	=26-	=26-	=26-	=26-	=26-	=26-	=26-	=26-	=26-	=26-	=26-
!	!	!	!	!LO:LB:g=original	!	!	!	!	!	!	!	!	!	!	!
2.G/	-ctiſ-	2.g/	-ctiſ-	2.b\	-ctiſ-	2.dd\	-ctiſ-	1r	.	1r	.	1r	.	00r	.
*custos:c	*	*	*	*	*	*	*	*	*	*	*	*	*	*	*
4G/	-si-	4g/	-si-	4b\	-si-	4dd\	-si-	.	.	.	.	.	.	.	.
=27-	=27-	=27-	=27-	=27-	=27-	=27-	=27-	=27-	=27-	=27-	=27-	=27-	=27-	=27-	=27-
!LO:LB:g=original	!	!	!	!	!	!	!	!	!	!	!	!	!	!	!
1c	-ma	1g	-ma	1cc	-ma	1ee	-ma	2r	.	2r	.	2r	.	.	.
*	*	*	*	*	*	*	*	*	*	*	*	*	*color:red	*	*
!	!	!	!	!	!	!	!	!	!	!LO:TX:b:t=Echo:color=red	!	!	!	!	!
.	.	.	.	.	.	.	.	2c/	.	2g/	An-	2ee\	An-	.	.
=28-	=28-	=28-	=28-	=28-	=28-	=28-	=28-	=28-	=28-	=28-	=28-	=28-	=28-	=28-	=28-
00r	.	00r	.	00r	.	00r	.	2c/	.	2g/	-na	2ee\	-na	.	.
*	*	*	*	*	*	*	*	*	*	*	*	*	*color:auto	*	*
.	.	.	.	.	.	.	.	2A/	ſan-	2cc\	San-	2cc\	San-	.	.
=29-	=29-	=29-	=29-	=29-	=29-	=29-	=29-	=29-	=29-	=29-	=29-	=29-	=29-	=29-	=29-
.	.	.	.	.	.	.	.	2.G/	-ctiſ-	2.b\	-ctiſ-	2.dd\	-ctiſ-	.	.
.	.	.	.	.	.	.	.	4G/	-si-	4b\	-si-	4dd\	-si-	.	.
=30-	=30-	=30-	=30-	=30-	=30-	=30-	=30-	=30-	=30-	=30-	=30-	=30-	=30-	=30-	=30-
*	*	*	*	*	*	*	*	*	*	*	*	*custos:ee	*	*	*
!	!	!	!	!	!	!	!	!LO:TX:t=P:problem=kreska pseudotaktowa	!	!LO:TX:t=P:problem=kreska pseudotaktowa	!	!LO:TX:t=P:problem=kreska pseudotaktowan	!	!LO:TX:t=P:problem=kreska pseudotaktowa	!
.	.	.	.	.	.	.	.	1c	-ma	1cc	-ma	1ee	-ma	1r	.
=31-	=31-	=31-	=31-	=31-	=31-	=31-	=31-	=31-	=31-	=31-	=31-	=31-	=31-	=31-	=31-
!	!	!	!	!	!	!	!	!	!	!	!	!LO:LB:g=original	!	!	!
.	.	.	.	.	.	.	.	2c/	ſa-	00r	.	00r	.	2g/	ſa-
.	.	.	.	.	.	.	.	4A/	-cro	.	.	.	.	4a\	-cro
.	.	.	.	.	.	.	.	4G/	be-	.	.	.	.	4b\	be-
=32-	=32-	=32-	=32-	=32-	=32-	=32-	=32-	=32-	=32-	=32-	=32-	=32-	=32-	=32-	=32-
*	*	*	*	*	*	*custos:g	*	*	*	*	*	*	*	*	*
0r	.	0r	.	0r	.	0r	.	2A/	-a-	.	.	.	.	2cc\	-a-
.	.	.	.	.	.	.	.	2B/	-ta	.	.	.	.	2dd\	-ta
=33-	=33-	=33-	=33-	=33-	=33-	=33-	=33-	=33-	=33-	=33-	=33-	=33-	=33-	=33-	=33-
.	.	.	.	.	.	.	.	2.c/	co-	.	.	.	.	2.ee\	co-
.	.	.	.	.	.	.	.	4c/	-niu-	.	.	.	.	4ee\	-niu-
=34-	=34-	=34-	=34-	=34-	=34-	=34-	=34-	=34-	=34-	=34-	=34-	=34-	=34-	=34-	=34-
*	*	*custos:b	*	*	*	*	*	*	*	*	*	*	*	*	*
!	!	!	!	!	!	!LO:LB:g=original	!	!LO:TX:t=P:problem=kreska pseudotaktowa	!	!	!	!	!	!	!
1r	.	1r	.	1r	.	1r	.	1G	-ge	.	.	.	.	1dd	-ge.
=35-	=35-	=35-	=35-	=35-	=35-	=35-	=35-	=35-	=35-	=35-	=35-	=35-	=35-	=35-	=35-
!	!	!LO:LB:g=original	!	!	!	!	!	!	!	!	!	!LO:TX:t=P:problem=dwukreska pseudotaktowa	!	!	!
2g\	ſa-	2b\	ſa-	2b\	ſa-	2g/	ſa-	00r	.	00r	.	00r	.	00r	.
4f\	-cro	4a\	-cro	4cc\	-cro	4a\	-cro	.	.	.	.	.	.	.	.
4d\	be-	4f/	be-	4dd\	be-	4b\	be-	.	.	.	.	.	.	.	.
=36-	=36-	=36-	=36-	=36-	=36-	=36-	=36-	=36-	=36-	=36-	=36-	=36-	=36-	=36-	=36-
2c/	-a-	2g/	-a-	2ee\	-a-	2cc\	-a-	.	.	.	.	.	.	.	.
2B/	-ta	2g/	-ta	2dd\	-ta	2dd\	-ta	.	.	.	.	.	.	.	.
=37-	=37-	=37-	=37-	=37-	=37-	=37-	=37-	=37-	=37-	=37-	=37-	=37-	=37-	=37-	=37-
2.c/	Co-	2.g/	co-	2.cc\	Co-	2.ee\	Co-	.	.	.	.	.	.	.	.
4c/	-niu-	4g/	-niu-	4cc\	-niu-	4ee\	-niu-	.	.	.	.	.	.	.	.
=38-	=38-	=38-	=38-	=38-	=38-	=38-	=38-	=38-	=38-	=38-	=38-	=38-	=38-	=38-	=38-
1G	-ge,	1g	-ge,	1b	-ge	1dd	-ge	.	.	.	.	.	.	.	.
=39-	=39-	=39-	=39-	=39-	=39-	=39-	=39-	=39-	=39-	=39-	=39-	=39-	=39-	=39-	=39-
!	!	!	!	!	!	!	!	!LO:TX:b:i:t=echo	!	!LO:TX:b:t=Echo:color=red	!	!LO:TX:b:t=Echo:color=red	!	!LO:TX:t=P:problem=kreska pseudotaktowa	!
00r	.	00r	.	00r	.	00r	.	2.c/	Con-	2.cc\	Con-	2.ee\	Con-	0r	.
*	*	*	*	*	*	*	*	*custos:G	*	*custos:b	*	*	*	*	*
.	.	.	.	.	.	.	.	4c/	-iu-	4cc\	-iu-	4ee\	-iu-	.	.
=40-	=40-	=40-	=40-	=40-	=40-	=40-	=40-	=40-	=40-	=40-	=40-	=40-	=40-	=40-	=40-
!	!	!	!	!	!	!	!	!LO:TX:t=P:problem=kreska pseudotaktowa	!	!LO:TX:t=P:problem=kreska pseudotaktowa	!	!	!	!x	!
!	!	!	!	!	!	!	!	!LO:LB:g=original	!	!LO:LB:g=original	!	!	!	!	!
.	.	.	.	.	.	.	.	1G	-ge	1b	-ge	1dd	-ge	.	.
=41-	=41-	=41-	=41-	=41-	=41-	=41-	=41-	=41-	=41-	=41-	=41-	=41-	=41-	=41-	=41-
.	.	.	.	.	.	.	.	2g\	ſa-	00r	.	00r	.	2dd\	ſa-
.	.	.	.	.	.	.	.	4f\	-cra-	.	.	.	.	4dd\	-cra-
.	.	.	.	.	.	.	.	4e\	-ti-	.	.	.	.	4ee\	-ti-
=42-	=42-	=42-	=42-	=42-	=42-	=42-	=42-	=42-	=42-	=42-	=42-	=42-	=42-	=42-	=42-
.	.	.	.	.	.	.	.	2d\	-o-	.	.	.	.	2ff\	-o-
.	.	.	.	.	.	.	.	2d\	-re	.	.	.	.	2ff\	-re
=43-	=43-	=43-	=43-	=43-	=43-	=43-	=43-	=43-	=43-	=43-	=43-	=43-	=43-	=43-	=43-
0r	.	0r	.	0r	.	0r	.	2.A/	Fi-	.	.	.	.	2.ee\	fi-
.	.	.	.	.	.	.	.	4A/	-li-	.	.	.	.	4ee\	-li-
=44-	=44-	=44-	=44-	=44-	=44-	=44-	=44-	=44-	=44-	=44-	=44-	=44-	=44-	=44-	=44-
.	.	.	.	.	.	.	.	1d	-a	.	.	.	.	1dd	-a
=45-	=45-	=45-	=45-	=45-	=45-	=45-	=45-	=45-	=45-	=45-	=45-	=45-	=45-	=45-	=45-
!	!	!	!	!	!	!	!	!	!	!LO:TX:t=P:problem=kreska pseudotaktowa	!	!LO:TX:t=P:problem=kreska pseudotaktowa	!	!	!
2g\	ſa-	2b\	ſa-	2b\	ſa-	2dd\	ſa-	00r	.	00r	.	00r	.	00r	.
4g\	-cra-	4b\	-cra-	4b\	-cra-	4dd\	-cra-	.	.	.	.	.	.	.	.
4e\	-ti-	4g/	-ti-	4cc\	-ti-	4ee\	-ti-	.	.	.	.	.	.	.	.
=46-	=46-	=46-	=46-	=46-	=46-	=46-	=46-	=46-	=46-	=46-	=46-	=46-	=46-	=46-	=46-
2d\	-o-	2a\	-o-	2dd\	-o-	2ff\	-o-	.	.	.	.	.	.	.	.
2d\	-re	2a\	-re	2dd\	-re	2ff\	-re	.	.	.	.	.	.	.	.
=47-	=47-	=47-	=47-	=47-	=47-	=47-	=47-	=47-	=47-	=47-	=47-	=47-	=47-	=47-	=47-
2.A/	Fi-	2.a\	Fi-	2.cc\	Fi-	2.ee\	Fi-	.	.	.	.	.	.	.	.
4A/	-li-	4a\	-li-	4cc\	-li-	4ee\	-li-	.	.	.	.	.	.	.	.
=48-	=48-	=48-	=48-	=48-	=48-	=48-	=48-	=48-	=48-	=48-	=48-	=48-	=48-	=48-	=48-
*	*	*	*	*	*	*	*	*	*	*	*	*	*	*custos:dd	*
1d	-a	1a	-a	1dd	-a	1dd	-a	.	.	.	.	.	.	.	.
=49-	=49-	=49-	=49-	=49-	=49-	=49-	=49-	=49-	=49-	=49-	=49-	=49-	=49-	=49-	=49-
!	!	!	!	!	!	!	!	!LO:TX:a:i:t=echo	!	!LO:TX:b:t=Echo:color=red	!	!LO:TX:b:t=Echo:color=red	!	!LO:LB:g=original	!
00r	.	00r	.	00r	.	00r	.	2.A/	Fi-	2.cc#X\	Fi-	2.ee\	Fi-	0r	.
.	.	.	.	.	.	.	.	4A/	-li-	4cc#\	-li-	4ee\	-li-	.	.
=50-	=50-	=50-	=50-	=50-	=50-	=50-	=50-	=50-	=50-	=50-	=50-	=50-	=50-	=50-	=50-
!	!	!	!	!	!	!	!	!LO:TX:t=P:problem=kreska pseudotaktowa	!	!LO:TX:t=P:problem=kreska pseudotaktowa	!	!	!	!	!
.	.	.	.	.	.	.	.	1d	-a	1dd	-a	1dd	-a	.	.
=51-	=51-	=51-	=51-	=51-	=51-	=51-	=51-	=51-	=51-	=51-	=51-	=51-	=51-	=51-	=51-
.	.	.	.	.	.	.	.	2g\	Ne-	00r	.	00r	.	2dd\	Ne-
.	.	.	.	.	.	.	.	2e\	-po-	.	.	.	.	2ee\	-po-
=52-	=52-	=52-	=52-	=52-	=52-	=52-	=52-	=52-	=52-	=52-	=52-	=52-	=52-	=52-	=52-
.	.	.	.	.	.	.	.	2f\	-te	.	.	.	.	4cc,<\	-te,
.	.	.	.	.	.	.	.	.	.	.	.	.	.	4cc\	ne-
.	.	.	.	.	.	.	.	2d\	ne-	.	.	.	.	2dd\	-po-
=53-	=53-	=53-	=53-	=53-	=53-	=53-	=53-	=53-	=53-	=53-	=53-	=53-	=53-	=53-	=53-
0r	.	00r	.	0r	.	0r	.	2e\	-po-	.	.	.	.	4b\	-te
.	.	.	.	.	.	.	.	.	.	.	.	.	.	4b\	ne-
.	.	.	.	.	.	.	.	2c/	-te	.	.	.	.	2cc\	-po-
=54-	=54-	=54-	=54-	=54-	=54-	=54-	=54-	=54-	=54-	=54-	=54-	=54-	=54-	=54-	=54-
.	.	.	.	.	.	.	.	2d\	ſa-	.	.	.	.	2a\	-te
.	.	.	.	.	.	.	.	2G/	-cra-	.	.	.	.	4b\	ſa-
.	.	.	.	.	.	.	.	.	.	.	.	.	.	4dd\	-cra-
=55-	=55-	=55-	=55-	=55-	=55-	=55-	=55-	=55-	=55-	=55-	=55-	=55-	=55-	=55-	=55-
1r	.	.	.	1r	.	1r	.	4.A/	-tiſ-	00r	.	00r	.	4.cc#X\	-tiſ-
*	*	*	*	*	*	*	*	*custos:d	*	*	*	*	*	*	*
.	.	.	.	.	.	.	.	8A/	-si-	.	.	.	.	8cc#\	-si-
!	!	!	!	!	!	!	!	!LO:LB:g=original	!	!	!	!	!	!	!
.	.	.	.	.	.	.	.	2d\	-ma	.	.	.	.	2dd\	-ma
=56-	=56-	=56-	=56-	=56-	=56-	=56-	=56-	=56-	=56-	=56-	=56-	=56-	=56-	=56-	=56-
*	*	*	*	*custos:cc	*	*	*	*	*	*	*	*	*	*	*
2g\	Ne-	.	.	2b\	Ne-	2dd\	Ne-	00r	.	.	.	.	.	00r	.
!	!	!	!	!LO:LB:g=original	!	!	!	!	!	!	!	!	!	!	!
2c/	-po-	.	.	2cc\	-po-	2ee\	-po-	.	.	.	.	.	.	.	.
=57-	=57-	=57-	=57-	=57-	=57-	=57-	=57-	=57-	=57-	=57-	=57-	=57-	=57-	=57-	=57-
4c/	-te	1r	.	4a\	-te	4cc\	-te	.	.	.	.	.	.	.	.
*custos:d	*	*	*	*	*	*	*	*	*	*	*	*	*	*	*
4f\	ne-	.	.	4a\	ne-	4cc\	ne-	.	.	.	.	.	.	.	.
!LO:LB:g=original	!	!	!	!	!	!	!	!	!	!	!	!	!	!	!
2d\	-po-	.	.	2b\	-po-	2dd\	-po-	.	.	.	.	.	.	.	.
=58-	=58-	=58-	=58-	=58-	=58-	=58-	=58-	=58-	=58-	=58-	=58-	=58-	=58-	=58-	=58-
4g\	-te	2g/	ne-	4g/	-te	4b\	-te	.	.	.	.	.	.	.	.
4G/	Ne-	.	.	4dd\	ne-	4b\	ne-	.	.	.	.	.	.	.	.
2c/	-po-	2g/	-po-	2ee\	-po-	2cc\	-po-	.	.	.	.	.	.	.	.
=59-	=59-	=59-	=59-	=59-	=59-	=59-	=59-	=59-	=59-	=59-	=59-	=59-	=59-	=59-	=59-
*	*	*	*	*	*	*custos:a	*	*	*	*	*	*	*	*	*
4.f\	-te	2a\	-te	2cc\	-te	2a\	-te	.	.	1r	.	1r	.	.	.
8e\	.	.	.	.	.	.	.	.	.	.	.	.	.	.	.
!	!	!	!	!	!	!LO:LB:g=original	!	!	!	!	!	!	!	!	!
4d\	ſa-	4a\	ſa-	4dd\	ſa-	4a\	ſa-	.	.	.	.	.	.	.	.
4d\	-cra-	4a\	-cra-	4ff\	-cra-	4dd\	-cra-	.	.	.	.	.	.	.	.
=60-	=60-	=60-	=60-	=60-	=60-	=60-	=60-	=60-	=60-	=60-	=60-	=60-	=60-	=60-	=60-
!	!	!	!	!	!	!	!	!	!	!	!	!	!	!LO:TX:t=P:problem=kreska pseudotaktowa	!
4.A/	-tiſ-	4.a\	-tiſ-	4.ee\	-tiſ-	4.cc#X\	-tiſ-	2r	.	2r	.	2r	.	0r	.
*	*	*custos:a	*	*	*	*	*	*	*	*	*	*	*	*	*
8A/	-si-	8a\	-si-	8ee\	-si-	8cc#\	-si-	.	.	.	.	.	.	.	.
!	!	!LO:LB:g=original	!	!	!	!	!	!LO:TX:a:i:t=echo	!	!LO:TX:b:t=Echo:color=red	!	!LO:TX:b:t=Echo:color=red	!	!	!
2d\	-ma	2a\	-ma	2dd\	-ma	2dd\	-ma	4d\	ſa-	4fny/	ſa-	4dd\	ſa-	.	.
.	.	.	.	.	.	.	.	4d\	-cra-	4f/	-cra-	4dd\	-cra-	.	.
=61-	=61-	=61-	=61-	=61-	=61-	=61-	=61-	=61-	=61-	=61-	=61-	=61-	=61-	=61-	=61-
1r	.	1r	.	1r	.	1r	.	4.A/	-tiſ-	4.e/	-tiſ-	4.cc#X\	-tiſ-	.	.
.	.	.	.	.	.	.	.	8A/	-si-	8e/	-si-	8cc#\	-si-	.	.
!	!	!	!	!	!	!	!	!LO:TX:t=P:problem=kreska pseudotaktowa	!	!LO:TX:t=P:problem=kreska pseudotaktowa	!	!	!	!	!
!	!	!	!	!	!	!	!	!	!	!	!	!LO:TX:t=P:problem=kreska pseudotaktowa	!	!	!
.	.	.	.	.	.	.	.	2d\	-ma	2f#X/	-ma	2dd\	-ma	.	.
=62-	=62-	=62-	=62-	=62-	=62-	=62-	=62-	=62-	=62-	=62-	=62-	=62-	=62-	=62-	=62-
*M3/1	*	*M3/1	*	*M3/1	*	*M3/1	*	*M3/1	*	*M3/1	*	*M3/1	*	*M3/1	*
!	!	!	!	!	!	!	!	!LO:TX:t=P:problem=litera S.color=red	!	!	!	!	!	!LO:TX:t=P:problem=litera S.color=red	!
1%6r	.	1%6r	.	1%6r	.	1%6r	.	0d	Sa-	1%6r	.	1%6r	.	0a	Sa-
.	.	.	.	.	.	.	.	1G	-cra-	.	.	.	.	1b	-cra-
=63-	=63-	=63-	=63-	=63-	=63-	=63-	=63-	=63-	=63-	=63-	=63-	=63-	=63-	=63-	=63-
.	.	.	.	.	.	.	.	1.c	-tiſ-	.	.	.	.	1.ccny	-tiſ-
.	.	.	.	.	.	.	.	2c/	-si-	.	.	.	.	2cc\	-si-
*	*	*	*	*	*	*	*	*	*	*	*	*	*	*custos:cc	*
.	.	.	.	.	.	.	.	1c	-ma	.	.	.	.	1cc	-ma
=64-	=64-	=64-	=64-	=64-	=64-	=64-	=64-	=64-	=64-	=64-	=64-	=64-	=64-	=64-	=64-
!LO:TX:t=P:problem=litera S.color=red	!	!LO:TX:t=P:problem=litera S.color=red	!	!LO:TX:t=P:problem=litera S.color=red	!	!	!	!	!	!	!	!	!	!LO:LB:g=original	!
0A	Sa-	0e	Sa-	0a	Sa-	0a	ſa-	1%6r	.	1%6r	.	1%6r	.	0cc	Sa-
1G	-cra-	1g	-cra-	1d	-cra-	1b	-cra-	.	.	.	.	.	.	1dd	-cra-
=65-	=65-	=65-	=65-	=65-	=65-	=65-	=65-	=65-	=65-	=65-	=65-	=65-	=65-	=65-	=65-
1.c	-tiſ-	1.g	-tiſ-	1.e	-tiſ-	1.ccny	-tiſ-	.	.	.	.	.	.	1.ee	-tiſ-
2c/	-si-	2g/	-si-	2e/	-si-	2cc\	-si-	.	.	.	.	.	.	2ee\	-si-
1c	-ma	1g	-ma,	1g	-ma	1cc	-ma	.	.	.	.	.	.	1ee	-ma
=66-	=66-	=66-	=66-	=66-	=66-	=66-	=66-	=66-	=66-	=66-	=66-	=66-	=66-	=66-	=66-
*	*	*	*	*	*	*	*ij	*	*	*	*	*	*	*	*
0c	ſa-	0g	ſa-	0cc	ſa-	0ee	ſa-	1%6r	.	1%6r	.	1%6r	.	0ee	Sa-
1d	-cra-	1a	-cra-	1a	-cra-	1dd	-cra-	.	.	.	.	.	.	1ff	-cra-
=67-	=67-	=67-	=67-	=67-	=67-	=67-	=67-	=67-	=67-	=67-	=67-	=67-	=67-	=67-	=67-
1.A	-tiſ-	1a	-tiſ-	1.a	-tiſ-	1.cc	-tiſ-	.	.	.	.	.	.	1.ee	-tiſ-
.	.	1e	-si-	.	.	.	.	.	.	.	.	.	.	.	.
*custos:d	*	*	*	*custos:a	*	*	*	*	*	*	*	*	*	*	*
!	!	!	!	!	!	!LO:TX:b:t=P:problem=# below	!	!	!	!	!	!	!	!	!
2A/	-si-	.	.	2a\	-si-	2cc#X\	-si-	.	.	.	.	.	.	2ee\	-si-
!LO:LB:g=original	!	!	!	!LO:LB:g=original	!	!	!	!	!	!	!	!	!	!	!
1d	-ma	1f	-ma	1a	-ma	1dd	-ma	.	.	.	.	.	.	1dd	-ma
*	*	*	*	*	*	*	*Xij	*	*	*	*	*	*	*	*
=68-	=68-	=68-	=68-	=68-	=68-	=68-	=68-	=68-	=68-	=68-	=68-	=68-	=68-	=68-	=68-
*	*	*	*ij	*	*	*	*	*	*	*	*	*	*	*	*
!	!	!	!	!	!	!	!	!	!	!LO:TX:b:t=Echo:color=red	!	!LO:TX:b:t=Echo:color=red	!	!	!
!	!	!	!	!	!	!	!	!	!	!LO:TX:t=P:problem=litera S.color=red	!	!	!	!	!
0c	ſa-	0e	ſa-	0g	ſa-	0ccny	ſa-	0c	ſa-	0g	ſa-	0ccny	ſa-	0ee	Sa-
*	*	*	*	*	*	*	*	*	*	*custos:f#	*	*custos:a	*	*	*
1G	-cra-	1g	-cra-	1b	-cra-	1dd	-cra-	1g	-cra-	1g	-cra-	1b	-cra-	1dd	-cra-
=69-	=69-	=69-	=69-	=69-	=69-	=69-	=69-	=69-	=69-	=69-	=69-	=69-	=69-	=69-	=69-
!	!	!	!	!	!	!	!	!	!	!LO:LB:g=original	!	!LO:LB:g=original	!	!	!
0d	-tiſ-	0a	-tiſ-	0dd	-tiſ-	0dd	-tiſ-	0d	-tiſ-	0f#X	-tiſ-	0a	-tiſ-	0dd	-tiſ-
*	*	*	*	*	*	*custos:b	*	*	*	*	*	*	*	*	*
1d	-si-	1d	-si-	1dd	-si-	1a	-si-	1d	-si-	1f#	-si-	1a	-si-	1dd	-si-
=70-	=70-	=70-	=70-	=70-	=70-	=70-	=70-	=70-	=70-	=70-	=70-	=70-	=70-	=70-	=70-
!	!	!	!	!	!	!LO:LB:g=original	!	!	!	!LO:TX:t=P:problem=kreska pseudotaktowa	!	!	!	!	!
0.G	-ma	0.d	-ma	0.b	-ma	0.b	-ma	0.g	-ma	0.g	-ma	0.g	-ma	0.dd	-ma
*	*	*	*Xij	*	*	*	*	*	*	*	*	*	*	*	*
=71-	=71-	=71-	=71-	=71-	=71-	=71-	=71-	=71-	=71-	=71-	=71-	=71-	=71-	=71-	=71-
*	*	*	*	*	*	*	*	*	*	*	*	*	*	*	*ij
*	*	*	*	*	*	*	*	*custos:A	*	*	*	*	*	*	*
1%6r	.	1%6r	.	1%6r	.	1%6r	.	0d	ſa-	1%6r	.	1%6r	.	0a	Sa-
!	!	!	!	!	!	!	!	!LO:LB:g=original	!	!	!	!	!	!	!
.	.	.	.	.	.	.	.	1A	-cra-	.	.	.	.	1b	-cra-
=72-	=72-	=72-	=72-	=72-	=72-	=72-	=72-	=72-	=72-	=72-	=72-	=72-	=72-	=72-	=72-
.	.	.	.	.	.	.	.	1.c	-tiſ-	.	.	.	.	1.cc	-tiſ-
.	.	.	.	.	.	.	.	2c/	-si-	.	.	.	.	2cc\	-si-
*	*	*	*	*	*	*	*	*	*	*	*	*	*	*custos:cc	*
.	.	.	.	.	.	.	.	1c	-ma	.	.	.	.	1cc	-ma
*	*	*	*	*	*	*	*	*	*	*	*	*	*	*	*Xij
=73-	=73-	=73-	=73-	=73-	=73-	=73-	=73-	=73-	=73-	=73-	=73-	=73-	=73-	=73-	=73-
!	!	!	!	!	!	!	!	!	!	!	!	!	!	!LO:LB:g=original	!
0A	ſa-	0e	ſa-	0a	Sa-	0a	ſa-	1%6r	.	1%6r	.	1%6r	.	0cc	Sa-
*	*	*custos:g	*	*	*	*	*	*	*	*	*	*	*	*	*
1G	-cra-	1g	-cra-	1d	-cra-	1b	-cra-	.	.	.	.	.	.	1dd	-cra-
=74-	=74-	=74-	=74-	=74-	=74-	=74-	=74-	=74-	=74-	=74-	=74-	=74-	=74-	=74-	=74-
!	!	!LO:LB:g=original	!	!	!	!	!	!	!	!	!	!	!	!	!
1.c	-tiſ-	1.g	-tiſ-	1.e	-tiſ-	1.cc	-tiſ-	.	.	.	.	.	.	1.ee	-tiſ-
2c/	-si-	2g/	-si-	2e/	-si-	2cc\	-si-	.	.	.	.	.	.	2ee\	-si-
1c	-ma	1e	-ma	1g	-ma	1cc	-ma	.	.	.	.	.	.	1ee	-ma
=75-	=75-	=75-	=75-	=75-	=75-	=75-	=75-	=75-	=75-	=75-	=75-	=75-	=75-	=75-	=75-
*	*	*	*	*	*	*	*	*	*	*	*	*	*	*	*ij
0c	ſa-	0e	ſa-	0cc	ſa-	0ee	ſa-	1%6r	.	1%6r	.	1%3r	.	0ee	Sa-
1d	-cra-	1a	-cra-	1a	-cra-	1dd	-cra-	.	.	.	.	.	.	1ff	-cra-
=76-	=76-	=76-	=76-	=76-	=76-	=76-	=76-	=76-	=76-	=76-	=76-	=76-	=76-	=76-	=76-
!	!	!	!	!	!	!	!	!	!	!	!	!LO:TX:t=P:problem=niewyraźne źródło	!	!	!
1.A	-tiſ-	1a	-tiſ-	1.a	-tiſ-	1.cc	-tiſ-	.	.	.	.	1%3ryy	.	1.ee	-tiſ-
.	.	1e	-si-	.	.	.	.	.	.	.	.	.	.	.	.
2A/	-si-	.	.	2a\	-si-	2cc\	-si-	.	.	.	.	.	.	2ee\	-si-
1d	-ma	1f,<	-ma,	1a	-ma	1dd	-ma	.	.	.	.	.	.	1dd	-ma
*	*	*	*	*	*	*	*	*	*	*	*	*	*	*	*Xij
=77-	=77-	=77-	=77-	=77-	=77-	=77-	=77-	=77-	=77-	=77-	=77-	=77-	=77-	=77-	=77-
*	*	*	*ij	*	*	*	*	*	*	*	*	*	*	*	*
!	!	!	!	!	!	!	!	!	!	!LO:TX:b:t=Echo:color=red	!	!LO:TX:b:t=Echo:color=red	!	!	!
0c	ſa-	0e	ſa-	0g	ſa-	0cc	ſa-	0c	ſa-	0g	ſa-	0cc	ſa-	0ee	Sa-
*custos:d	*	*	*	*custos:dd	*	*	*	*	*	*	*	*	*	*	*
1G	-cra-	1g	-cra-	1b	-cra-	1dd	-cra-	1g	-cra-	1g	-cra-	1b	-cra-	1dd	-cra-
=78-	=78-	=78-	=78-	=78-	=78-	=78-	=78-	=78-	=78-	=78-	=78-	=78-	=78-	=78-	=78-
!LO:LB:g=original	!	!	!	!LO:LB:g=original	!	!	!	!	!	!	!	!	!	!	!
0d	-tiſ-	0a	-tiſ-	0dd	-tiſ-	0dd	-tiſ-	0d	-tiſ-	0f#X	-tiſ-	0a	-tiſ-	0dd	-tiſ-
1d	-si-	1d	-si-	1dd	-si-	1a	-si-	1d	-si-	1f#	-si-	1a	-si-	1dd	-si-
=79-	=79-	=79-	=79-	=79-	=79-	=79-	=79-	=79-	=79-	=79-	=79-	=79-	=79-	=79-	=79-
0.G	-ma	0.d	-ma	0.b	-ma	0.b	-ma	0.g	-ma	0.g	-ma	0.g	-ma	0.dd	-ma
*	*	*	*Xij	*	*	*	*	*	*	*	*	*	*	*	*
=80-	=80-	=80-	=80-	=80-	=80-	=80-	=80-	=80-	=80-	=80-	=80-	=80-	=80-	=80-	=80-
*	*	*	*	*	*	*	*	*	*	*	*	*	*	*	*ij
0c	ſa-	0g	ſa-	0g	ſa-	0ee	ſa-	0c	ſa-	0g	ſa-	0e	ſa-	0cc	Sa-
*	*	*	*	*	*	*custos:cc	*	*	*	*	*	*	*	*	*
1G	-cra-	1b	-cra-	1g	-cra-	1dd	-cra-	1B	-cra-	1g	-cra-	1g	-cra-	1dd	-cra-
=81-	=81-	=81-	=81-	=81-	=81-	=81-	=81-	=81-	=81-	=81-	=81-	=81-	=81-	=81-	=81-
!	!	!	!	!	!	!LO:LB:g=original	!	!	!	!	!	!	!	!	!
0c	-tiſ-	0g	-tiſ-	0e	-tiſ-	0cc	-tiſ-	0c	-tiſ-	0g	-tiſ-	0g	-tiſ-	0ee	-tiſ-
1c	-si-	1g	-si-	1e	-si-	1cc	-si-	1c	-si-	1g	-si-	1g	-si-	1ee	-si-
=82-	=82-	=82-	=82-	=82-	=82-	=82-	=82-	=82-	=82-	=82-	=82-	=82-	=82-	=82-	=82-
0.G;	-ma	0.d;	-ma	0.g;	-ma	0.b;	-ma	0.g;	-ma	0.g;	-ma	0.g;	-ma	0.dd;	-ma
*	*	*	*	*	*	*	*	*	*	*	*	*	*	*	*Xij
=-	=-	=-	=-	=-	=-	=-	=-	=-	=-	=-	=-	=-	=-	=-	=-
*-	*-	*-	*-	*-	*-	*-	*-	*-	*-	*-	*-	*-	*-	*-	*-
!!!system-decoration: [(s1,s2,s3,s4)][(s5,s6,s7,s8)]
!!!RDF**kern: < = below
!!!RDF**kern: > = above
!!!ENC: Anastazja Marusiak
!!!END: 2021-10-14
!!!ENC: Marta Chmielewska
!!!END: 2021-10-22
!!!YEC: Copyright 2022 Narodowy Instytut Fryderyka Chopina (https://polishscores.org)
!!!YEM: License CC-BY-4.0 (https://creativecommons.org/licenses/by/4.0)
